X:1
T:How Good Is the God We Adore
T:How Good Is the God We Adore
T:Joe Uthup, 2018
T:Joseph Hart, 1759; refrain anonymous
T:Public Domain Courtesy of the Cyber Hymnal™
C:Joe Uthup, 2018
Z:Public Domain
Z:Courtesy of the Cyber Hymnal™
%%score 1 2
L:1/8
Q:1/4=100
M:4/4
K:C
V:1 treble 
V:2 bass 
V:1
 [B,G]2 | [Ec]2 [Ec][Ec] ([Ec][Fd])[Ge][Bd] | [Ac]6 ([DB][Ec]) | %3
w: 1.~How|good is the God * we a-|dore, Our *|
w: 2.~’Tis|Je- sus the first * and the|last, Whose *|
 [Fd]2 [Ad][Ad] [Gd][Ge]([Gf][Gd]) | [Ge]6 ([Ec][Ge]) | [cf]2 [Bg][_Bg] [Ag]2 [^Gf][=Ge] | %6
w: faith- ful un- change- a- ble *|friend; His *|love is as great as His|
w: Spir- it shall guide us safe *|home, We’ll *|praise Him for all that is|
 [Gd]6 [DG]2 | [CA]2 [Af][^Gf] ([=Ge][Gd])[Gc][GB] | [Ec]6 ||"^Refrain" ([Ge][Bd]) | %10
w: power, And|knows nei- ther mea- * sure nor|end.||
w: past, And|trust Him for all * that’s to|come.||
 [Ac]6 ([DB][Ec]) | [Fd]2 [Ad]2 ([Gd][Ge])([Gf][Gd]) | [Ge]6 ([Ec][Ge]) | %13
w: |||
w: |||
 [cg]2 [Bg][_Bg] [Ag]2 [^Gf][=Ge] | [Gd]6 [DG]2 | [CA]2 [Af][^Gf] ([=Ge][Gd])[Gc][GB] | [Ec]6 |] %17
w: ||||
w: ||||
V:2
 [G,,F,]2 | [C,G,]2 [C,G,][C,G,] ([B,,G,][B,,F,])[G,,E,][^G,,E,] | [A,,E,]6 ([B,,F,][A,,F,]) | %3
w: |||
 [G,,G,]2 [A,,^F,][A,,F,] [B,,G,][B,,G,]([G,,=F,][G,,D,]) | [C,,C,]6 ([G,C][E,C]) | %5
w: ||
 [C,C]2 [C,G,][C,G,] [F,,F,]2 [F,,F,][F,,G,] | [G,,F,]6 [G,,F,]2 | %7
w: ||
 [F,,F,]2 [F,,C,][F,,D,] ([G,,C,][G,,F,])[B,,F,][D,F,] | [C,,C,]6 || ([G,,E,][^G,,E,]) | %10
w: ||Praise *|
 [A,,E,]6 ([B,,F,][A,,F,]) | [G,,G,]2 [A,,^F,]2 ([B,,G,][B,,G,])([G,,=F,][G,,D,]) | %12
w: Him, Praise *|Him, my glor- * ious *|
 [C,,C,]6 ([G,C][E,C]) | [C,C]2 [C,G,][C,G,] [F,,F,]2 [F,,F,][F,,G,] | [G,,F,]6 [G,,F,]2 | %15
w: God Whose *|love is so great as His|power And|
 [F,,F,]2 [F,,C,][F,,D,] ([G,,C,][G,,F,])[B,,F,][D,F,] | [C,,C,]6 |] %17
w: knows nei- ther mea- * sure nor|end!|

